X:1
T:Nobe's Maggot
M:9/8
L:1/8
R:Slip Jig
S:Joyce - Old Irish Folk Music and Songs, No. 724  (1909)
Z:AK/Fiddler's Companion
K:D
d>ed f2g a3|c2d e2f ecA|
dcB AFd F2z|d2z D2E F>ED||
G>AG B>cd F3|G>FE E>FE F>GF|
G>AG B>cd F2z|d2z D2E FED||

